img/image/socials2.svg

<svg width="18" height="15" viewBox="0 0 18 15" fill="none" xmlns="http://www.w3.org/2000/svg">
<path opacity="0.8" d="M17.9449 0.314455C17.9316 0.248679 17.9015 0.187485 17.8578 0.136822C17.814 0.086158 17.7579 0.047736 17.6951 0.025275C17.4582 -0.0209308 17.2134 -0.00356757 16.9854 0.0755846C16.9854 0.0755846 1.22251 5.77859 0.320418 6.40974C0.128005 6.54553 0.0705302 6.62599 0.0305483 6.71651C-0.124382 7.16662 0.360401 7.36529 0.360401 7.36529L4.42356 8.69799C4.49087 8.71451 4.56115 8.71451 4.62847 8.69799C5.55305 8.10958 13.9268 2.78878 14.4115 2.61025C14.4865 2.58762 14.544 2.61024 14.529 2.66556C14.3341 3.34952 7.05987 9.85471 7.05987 9.85471C7.04215 9.8781 7.02706 9.90338 7.01489 9.93013L6.63756 13.9861C6.63756 13.9861 6.47763 15.2283 7.71207 13.9861C8.58418 13.1085 9.4263 12.3743 9.84861 12.0197C11.2455 12.9904 12.7498 14.0641 13.397 14.6248C13.5064 14.7306 13.6357 14.8134 13.7773 14.8682C13.9189 14.923 14.07 14.9489 14.2216 14.9442C14.8364 14.9215 15.0088 14.2401 15.0088 14.2401C15.0088 14.2401 17.8825 2.60523 17.9774 1.0462C17.9774 0.895327 17.9999 0.794736 17.9999 0.691639C18.0014 0.563786 17.9828 0.436497 17.9449 0.314455Z" fill="#D9D9D9"/>
</svg>

<svg width="18" height="15" fill="none" xmlns="http://www.w3.org/2000/svg"><path opacity=".8" d="M17.945.314a.39.39 0 0 0-.25-.289 1.366 1.366 0 0 0-.71.05S1.223 5.78.32 6.41c-.192.136-.25.216-.29.307-.154.45.33.648.33.648l4.064 1.333a.43.43 0 0 0 .204 0c.925-.588 9.299-5.91 9.784-6.088.074-.022.132 0 .117.056-.195.684-7.47 7.189-7.47 7.189a.397.397 0 0 0-.044.075l-.377 4.056s-.16 1.242 1.074 0A33.956 33.956 0 0 1 9.85 12.02c1.396.97 2.9 2.044 3.548 2.605a1.138 1.138 0 0 0 .825.32c.614-.024.787-.705.787-.705s2.873-11.635 2.968-13.194c0-.15.023-.251.023-.354a1.224 1.224 0 0 0-.055-.378Z" fill="#D9D9D9"/></svg>
